!! J.S. Bach, Die Kunst der Fuge; Fuga 12b in d minor; BWV 1080.
!! Encoded from "Bach; Die Kunst der Fuge", (Carl Czerny, ed.)
!! New York: C.F. Peters Co., pp.44-45; in four voices.
!! Performance duration: 2:35; performance tempo: 130.1 quarter-notes per min.
!! (Davitt Moroney, harpsichord, "Bach, 'Die Kunst der Fuge'",
!! Harmonia Mundi No. HMC 1169.70)
!! NOTE: This is the second part (in inversion ) of a two-part fugue.
!!       The second part is in a different file (kdf.12a).
**kern	**kern	**kern	**kern
*d:	*d:	*d:	*d:
*M3/2	*M3/2	*M3/2	*M3/2
*MM130.1	*MM130.1	*MM130.1	*MM130.1
=1	=1	=1	=1
1.r	1.r	1.r	2a
.	.	.	1d
=2	=2	=2	=2
1.r	1.r	1.r	2f
.	.	.	1a
=3	=3	=3	=3
1.r	1.r	1.r	2b-
.	.	.	2a
.	.	.	2g
=4	=4	=4	=4
1.r	1.r	1.r	2.f
.	.	.	4e
.	.	.	4f
.	.	.	4g
=5	=5	=5	=5
1.r	1.r	2d	2a
.	.	1A	4r
.	.	.	4g
.	.	.	4f
.	.	.	4e
=6	=6	=6	=6
1.r	1.r	2B-	2d
.	.	1d	4r
.	.	.	4c
.	.	.	4B-
.	.	.	4A
=7	=7	=7	=7
1.r	1.r	2e-	4G
.	.	.	4A
.	.	2d	4B-
.	.	.	4c
.	.	2c	4d
.	.	.	4e-
=8	=8	=8	=8
1.r	1.r	2.B-	4d
.	.	.	8en
.	.	.	8f#
.	.	.	2.g
.	.	4A	.
.	.	4Bn	.
.	.	4c#	8a
.	.	.	8g
=9	=9	=9	=9
1.r	1.r	2.d	4fn
.	.	.	8g
.	.	.	8a
.	.	.	2.b-
.	.	4cn	.
.	.	4d	.
.	.	4e	8cc
.	.	.	8b-
=10	=10	=10	=10
1.r	2A	8f	2a
.	.	8e	.
.	.	8f	.
.	.	8g	.
.	1D	4a	4r
.	.	4d	4ff
.	.	4c	4ee
.	.	4B-	4dd
=11	=11	=11	=11
1.r	2F	2A	4cc
.	.	.	4dd
.	1A	4r	1cc#T
.	.	4G	.
.	.	4F	.
.	.	4E	.
=12	=12	=12	=12
1.r	2B-	4D	[1.dd
.	.	4E	.
.	2A	4F	.
.	.	4G	.
.	2G	4A	.
.	.	4B-	.
=13	=13	=13	=13
1.r	2.F	2.A	8dd]
.	.	.	8ee
.	.	.	8ff
.	.	.	8ee
.	.	.	4dd
.	4E	4B-	4cc#
.	4F	4A	4dd
.	4G	4G	4ee
=14	=14	=14	=14
2D	2A	4d	4ff
.	.	4e	4gg
1AA	4r	4f	2aa
.	4G	4g	.
.	4F	4a	4r
.	4E	4g	4cc#
=15	=15	=15	=15
2BB-	2D	4f	8dd
.	.	.	8ee
.	.	4e	8ff
.	.	.	8gg
1D	4r	4d	2ff
.	4C	4e-	.
.	4BB-	4d	4r
.	4AA	4c	4f#
=16	=16	=16	=16
2E-	4GG	4B-	8g
.	.	.	8a
.	4AA	4A	8b-
.	.	.	8cc
2D	4BB-	[1G	2b-
.	4C	.	.
2C	4D	.	4r
.	4E-	.	4g
=17	=17	=17	=17
2.BB-	2.D	4G]	8dd
.	.	.	8cc
.	.	4d	8b-
.	.	.	8a
.	.	2g	2g
4AA	4C#	.	.
4BBn	4D	4r	2gg
4C#	4E	4A	.
=18	=18	=18	=18
2.D	2.F	4B-	8ff
.	.	.	8ee
.	.	4f	8dd
.	.	.	8cc
.	.	2b-	2b-
4C#	4E	.	.
4D	4F	4r	2bb-
4E	4G	4c#	.
=19	=19	=19	=19
2.F	2.A	4d	8aa
.	.	.	8gg
.	.	8A	8ff
.	.	8G	8ee
.	.	4F	2dd
4E	4G	4B-	.
4F	4A	4A	4r
4G	4B-	4e	4cc#
=20	=20	=20	=20
4F	4A	2.d	4dd
4E	4G	.	4ee
2.D	2.F	.	4ff
.	.	4e	4gg
.	.	4f	2aa
8C	8E	4g	.
8BB-	8G	.	.
=21	=21	=21	=21
8AA	4F	[2a	1.r
8GG	.	.	.
8FF	4D	.	.
8EE	.	.	.
[2DD	4A	8a]	.
.	.	8g	.
.	8d	8f	.
.	8c	8e	.
8DD]	4B-	[2d	.
8CC#	.	.	.
8DD	8A	.	.
8EE	8G	.	.
=22	=22	=22	=22
4FF	4A	8d]	2r
.	.	8D	.
4GG	4B-	8d	.
.	.	8e	.
2.AA	8A	8f	2r
.	8G	8g	.
.	8F	8a	.
.	8E	8g	.
.	[2D	4f	8a
.	.	.	8g
8BB-	.	4F	8f
8C	.	.	8e
=23	=23	=23	=23
2BB-	2.D]	2G	8d
.	.	.	8c#
.	.	.	8d
.	.	.	8e
2.AA	.	2.F	4f
.	8C#	.	4g
.	8BBn	.	.
.	2C#T	.	4a
4GG	.	4E	4b-
=24	=24	=24	=24
2.FF	4D	2F	4a
.	2A	.	8bn
.	.	.	8cc#
.	.	[1f	2.dd
4EE	4G	.	.
4FF	4A	.	.
4GG	4Bn	.	8ee
.	.	.	8dd
=25	=25	=25	=25
1AA	4.c	4f]	4ccn
.	.	8e	4ee
.	16Bn	8g	.
.	16c	.	.
.	2d	8f	2a
.	.	8d	.
.	.	8c	.
.	.	8Bn	.
8r	2r	4A	8r
8AA	.	.	8cc
8GG	.	4Bn	8bn
8FF	.	.	8a
=26	=26	=26	=26
8EE	8E	8c	4g#
8FF	8D	8Bn	.
8EE	8C	8c	8a
8DD	8BBn	8d	8bn
4CC	[2AA	8e	4cc
.	.	8f	.
4r	.	8e	4dd
.	.	8d	.
2r	8AA]	8c	4ee
.	8GG#	8B	.
.	8AA	8A	4ff
.	8BB	8G#	.
=27	=27	=27	=27
2r	4C	2A	4ee
.	4D	.	4dd
2r	2.E	2r	4cc
.	.	.	4dd
[2AA	.	2r	4cc
.	8F	.	4bn
.	8G	.	.
=28	=28	=28	=28
4AA]	2F	1.r	2a
4BBn	.	.	.
4C	2.E	.	2g
4D	.	.	.
4E	.	.	8r
.	.	.	8g
4F	4D	.	8a
.	.	.	8bn
=29	=29	=29	=29
4E	2.C	1.r	8cc
.	.	.	8dd
4G#	.	.	8ee
.	.	.	8ff
[1A	.	.	8ee
.	.	.	8aa
.	4BBn	.	8ggn
.	.	.	8ff
.	4C	.	8ee
.	.	.	8dd
.	4D	.	8cc
.	.	.	8bn
=30	=30	=30	=30
4A]	2.E	1.r	8cc
.	.	.	8dd
8Gn	.	.	8ee
8F	.	.	8dd
4E	.	.	2cc
4F#	4D	.	.
4G	4E	.	4r
4A	4F#	.	4cc
=31	=31	=31	=31
[2B-	2.G	1.r	8b-
.	.	.	8a
.	.	.	8g
.	.	.	8b-
8B-]	.	.	2dd
8A	.	.	.
8G	4E	.	.
8B-	.	.	.
8A	4Fn	.	8r
8c	.	.	8a
8B-	4G	.	8g
8d	.	.	8f
=32	=32	=32	=32
[2A	8c	[2c	4e
.	8B-	.	.
.	8A	.	8f
.	8G	.	8g
8A]	[2F	8c]	4a
8G	.	8B-	.
8F	.	8A	4b-
8G	.	8G	.
[2F	8F]	8A	4cc
.	8E	8G	.
.	8F	8A	4dd
.	8G	8B-	.
=33	=33	=33	=33
2F]	4c	4A	4cc
.	8d	4B-	4b-
.	8e	.	.
8FF	[2f	2.c	4a
8GG	.	.	.
8AA	.	.	4g
8BB-	.	.	.
4AA	8f]	.	[2f
.	8e-	.	.
4FF	8d	8d	.
.	8c	8e-	.
=34	=34	=34	=34
8BB-	2B-	2d	8f]
8C	.	.	8en
8D	.	.	8f
8E	.	.	8g
[2F	8A	2.c	[2a
.	8G	.	.
.	8A	.	.
.	8B-	.	.
8F]	[2c	.	8a]
8E	.	.	8g
8F	.	4B-	8a
8G	.	.	8b-
=35	=35	=35	=35
8A	8c]	2.A	4cc
8G	8B-	.	.
8F	8A	.	8dd
8E	8G	.	8ee
1D	4A	.	2.ff
.	8Bn	4G	.
.	8c	.	.
.	4d	4A	.
.	4D	4Bn	8gg
.	.	.	8ff
=36	=36	=36	=36
8C	2E	[2c	4ee
8D	.	.	.
8C	.	.	4gg
8BB-	.	.	.
8AA	2.F	8c]	2cc
8BB-	.	8d	.
8AA	.	8c	.
8GG	.	8B-	.
8FF	.	4A	2r
8GG	.	.	.
8AA	8E	4c	.
8BB-	8D	.	.
=37	=37	=37	=37
8C	8E	[2G	1.r
8D	8F	.	.
8E	8G	.	.
8D	8F	.	.
4C	8E	8G]	.
.	8F	8A	.
2C	8E	8G	.
.	8D	8F	.
.	4E	4G	.
8BB-	4F#	4A	.
8AA	.	.	.
=38	=38	=38	=38
[1.GG	2G	8B-	1.r
.	.	8c	.
.	.	8B-	.
.	.	8A	.
.	8r	4B-	.
.	8d	.	.
.	8e-	4c	.
.	8c	.	.
.	8B-	4d	.
.	8A	.	.
.	8G	4e-	.
.	8A	.	.
=39	=39	=39	=39
4GG]	4B-	4d	1.r
8FF	4d	4f	.
8EEn	.	.	.
4FF	4c	4e-	.
4GG	4B-	4d	.
[2AA	4A	8c#	.
.	.	8Bn	.
.	4F	8A	.
.	.	8B	.
=40	=40	=40	=40
1AA_	8En	4c#	1.r
.	8D	.	.
.	8C#	4d	.
.	8BBn	.	.
.	8C#	4en	.
.	8AA	.	.
.	8D	4f	.
.	8BB	.	.
4AA]	4C#	4e	.
8GG	4E	4g	.
8FF	.	.	.
=41	=41	=41	=41
8GG	4D	4f	1.r
8AA	.	.	.
8BB-	4C#	4e	.
8AA	.	.	.
4BB-	4D	8d	.
.	.	8e	.
4AA	4F	8d	.
.	.	8c#	.
2GG	8B-	4d	.
.	8A	.	.
.	8G	4e	.
.	8B-	.	.
=42	=42	=42	=42
4D	[2A	8f	8a
.	.	8e	8g
2DD	.	[4d	8f
.	.	.	8e
.	8A]	8d]	[2d
.	8F	8c	.
8EE	8G	8B-	.
8FF	8A	8A	.
8GG	4G	2B-	8d]
8EE	.	.	8c#
8FF	[4D	.	8d
8GG	.	.	8e
=43	=43	=43	=43
8AA	4D]	[2A	4f
8BB-	.	.	.
8AA	4E	.	4g
8GG	.	.	.
[2FF	4F	8A]	2.a
.	.	8G	.
.	4D	8F	.
.	.	8E	.
8FF]	[2D	2A	.
8GG	.	.	.
8FF	.	.	8b-
8EE	.	.	8cc
=44	=44	=44	=44
8DD	4D]	2r	2b-
8EE	.	.	.
8DD	4G	.	.
8CC#	.	.	.
8DD	4F	8r	2.a
8EE	.	8b-	.
8FF	4D	8a	.
8GG	.	8g	.
[2AA	4.C#	8f	.
.	.	8d	.
.	.	8e	4g
.	16D	8c#	.
.	16E	.	.
=45	=45	=45	=45
8AA]	8F	2.d	2.f
8BB-	8G	.	.
8AA	8F	.	.
8GG	8E	.	.
8AA	8F	.	.
8BB-	8G	.	.
8Cn	2A	4cn	4e
8D	.	.	.
8C	.	4d	4f
8BB-	.	.	.
8AA	4B-	4e	4g
8GG	.	.	.
=46	=46	=46	=46
8FF	4A	8f	[2a
8GG	.	8e	.
8FF	4d	4d	.
8EE	.	.	.
8FF	8A	4a	8a]
8GG	8G	.	8b-
8AA	[4F	4r	8a
8BB-	.	.	8g
8AA	8F]	4r	4f
8GG	8E	.	.
8FF	8D	[4A	4a
8AA	8F	.	.
=47	=47	=47	=47
8C	2A	4A]	[2e
8D	.	.	.
8C	.	8E	.
8BBn	.	8D	.
4C	2r	4E	8e]
.	.	.	8f
4AA	.	8c	8e
.	.	8Bn	8d
4C	4r	8A	4e
.	.	8B	.
4AA	4A	8c	4f
.	.	8d	.
=48	=48	=48	=48
8EE	4G	8e	[2g
8FF	.	8d	.
8EE	4B-	2c#	.
8DD	.	.	.
8EE	4G	.	8g]
8FF	.	.	8a
[4GG	[4E	4e	8g
.	.	.	8f
8GG]	8E]	4cn	4e
8FF#	8D	.	.
8GG	8E	[4G	4g
8AA	8F#	.	.
=49	=49	=49	=49
8BB-	8G	4G]	[2d
8C	8A	.	.
8BB-	8G	4D	.
8AA	8Fn	.	.
8BB-	4E	2r	8d]
8GG	.	.	8e
[4G	2B-	.	8d
.	.	.	8c#
8G]	.	2r	4d
8F	.	.	.
8E	4B-	.	4g
16D	.	.	.
16C#	.	.	.
=50	=50	=50	=50
[1.D	8A	[2A	2.f
.	8G	.	.
.	8F	.	.
.	8E	.	.
.	2.D	8A]	.
.	.	8c	.
.	.	8B-	8g
.	.	8A	8a
.	.	8G	8b-
.	.	8B-	8dd
.	4E	8A	8cc
.	.	8G	8b-
=51	=51	=51	=51
1.D_	4F	4d	8a
.	.	.	8b-
.	4G	4r	8a
.	.	.	8g
.	2.A	8a	[2f
.	.	8g	.
.	.	8f	.
.	.	8e	.
.	.	[2d	8f]
.	.	.	8g
.	8B-	.	8f
.	8c	.	8e
=52	=52	=52	=52
1.D_	2B-	8d]	4d
.	.	8c#	.
.	.	8d	4r
.	.	8e	.
.	2.A	[2f	8aa
.	.	.	8gg
.	.	.	8ff
.	.	.	8ee
.	.	8f]	[2dd
.	.	8g	.
.	4G	8a	.
.	.	8b-	.
=53	=53	=53	=53
1.D_	4F	8a	4dd]
.	.	8d	.
.	4G	8c	4ee
.	.	8B-	.
.	4F	8A	4ff
.	.	8G	.
.	4E	8A	4gg
.	.	8B-	.
.	4F	4A	8ff
.	.	.	8dd
.	4G	4e	8cc
.	.	.	8b-
=54	=54	=54	=54
4D]	4A	4f	[1.a
8E	4r	[4c#	.
8F	.	.	.
8E	4G	8c#]	.
8D	.	8d	.
8C#	4r	8e	.
8BBn	.	8d	.
[2AA	8r	8c#	.
.	8F	8Bn	.
.	8E	8c#	.
.	8D	8d	.
=55	=55	=55	=55
4AA]	4C#	8e	1.a_
.	.	8a	.
4BBn	4D	8g	.
.	.	8f	.
4C#	4E	8e	.
.	.	8d	.
4D	4F	8c#	.
.	.	8Bn	.
8E	2G	8c#	.
8D	.	8d	.
4C#	.	8e	.
.	.	16f#	.
.	.	16g	.
=56	=56	=56	=56
1.D;	8r	8f#	2a_
.	8G	8e	.
.	8F#	4d	.
.	8E	.	.
.	1F#;	1a;	8a]
.	.	.	16dd
.	.	.	16ee
.	.	.	16ff#
.	.	.	16ee
.	.	.	8dd
.	.	.	2aa;
====	====	====	====
*-	*-	*-	*-
